X: 160297
T: Paddy Gavin's
S: Gannon Bros.
Z: B.Black
R: reel
M: 4/4
L: 1/8
K: G
zDEF |: GABG BddB|cdec dBGB|ce e2 dBGB|\
AGFE DEFD |
GABG BddB|cdec dBGB|ce e2 dBGB |1 AGFA GDEF :|2\
AGFA GABc ||
d3 g edBc|dG G2 dGBG|eg g2 edBd|eaag agef |
gdBA GABG|cABG AGED|EGce dBGB |1 AGFA GABc :|2\
AGFA G4 ||
